icons/op-input-disabled-24.svg

<svg width="24" height="24" viewBox="0 0 24 24" fill="none" xmlns="http://www.w3.org/2000/svg">
<path fill-rule="evenodd" clip-rule="evenodd" d="M15.1008 8.18115L18.7406 5L20 6.15501L17.6817 8.18115H19.965V16.1235H8.59425L5.30305 19L4.04364 17.8449L6.01325 16.1235H4V8.18115H15.1008ZM13.7757 9.33927V9.13115H12.2949V10.559H12.3801L13.7757 9.33927ZM11.6547 11.193H10.9298V11.8265L11.6547 11.193ZM10.3976 12.2916V11.193H8.91679V12.6208H10.021L10.3976 12.2916ZM9.21484 13.3254H8.19956L8.19954 14.2127L9.21484 13.3254ZM10.1621 14.7532H15.5574V13.3254H11.7958L10.1621 14.7532ZM13.0122 12.2623V12.6208H14.4929V11.193H14.2357L13.0122 12.2623ZM14.9101 10.6036H15.7655V9.85594L14.9101 10.6036ZM16.3671 9.33013L16.3671 10.6036H17.8479V9.17578H16.5437L16.3671 9.33013ZM7.59795 14.7385V13.3254H6.11711V14.7532H7.58109L7.59795 14.7385ZM7.59792 9.13115H6.11708L6.11711 10.559H7.59792V9.13115ZM9.6803 9.13115H8.19953V10.559H9.6803V9.13115ZM11.6933 9.13115H10.2124L10.2125 10.559H11.6933V9.13115ZM8.31518 11.193H6.83441V12.6208H8.31518V11.193ZM16.4828 11.2376H15.002L15.002 12.6654H16.4828V11.2376ZM17.848 13.37H16.3671L16.3672 14.7979H17.848V13.37Z" fill="black"/>
</svg>

<svg xmlns="http://www.w3.org/2000/svg" width="24" height="24" viewBox="0 0 24 24"><path d="M15.101 8.181 18.741 5 20 6.155l-2.318 2.026h2.283v7.943H8.594L5.303 19l-1.259-1.155 1.969-1.721H4V8.181Zm-4.939 6.572h5.395v-1.428h-3.761Zm7.686-1.383h-1.481v1.428h1.481Zm-6.155-4.239h-1.481v1.428h1.481Zm-4.095 0H6.117v1.428h1.481Zm2.082 0H8.2v1.428h1.48Zm6.803 2.107h-1.481v1.427h1.481Zm-8.168-.045H6.834v1.428h1.481Zm-.717 3.545v-1.413H6.117v1.428h1.464Zm8.769-5.408v1.274h1.481V9.176h-1.304Zm-5.969 2.962v-1.099H8.917v1.428h1.104Zm2.614-.03v.359h1.481v-1.428h-.257Zm.764-2.923v-.208h-1.481v1.428h.085Zm-4.561 3.986H8.2v.888Zm5.695-2.721h.856v-.748Zm-3.255.589h-.725v.633Z"/></svg>
